assets/images/legend/newcastle/passive.svg

<svg height="512" viewBox="0 0 135.46666 135.46667" width="512" xmlns="http://www.w3.org/2000/svg"><g fill="#273839" transform="matrix(1.0149033 0 0 1.0149033 -.669857 -.982177)"><circle cx="95.976486" cy="20.632605" r="4.795573"/><circle cx="122.56823" cy="67.865623" r="4.795573"/><circle cx="12.898438" cy="67.865623" r="4.795573"/><path d="m156.27148 32.703125-44.19531 26.517578 1.5918 21.212891-82.156251 143.445316-17.19336 7.96289v51.35351l14.84961 6.36524 86.443361 149.55273v13.78906l45.36719 26.19141 14.56054-11.16602h165.99414l8.3086 7.07032 46.13867-25.63086-.88477-14.84961 84.85352-145.31055 15.20312-6.36523-.35351-51.61719-16.44141-8.13281-79.72656-137.884769 1.06055-22.27539-45.07813-26.69336-11.66601 10.078125h-168.64454zm19.47852 53.599417 159.43359-.486136c-6.24999-29.162822 21.722-44.581863 41.35283-31.950442 24.07053 13.082953 10.73919 50.725646-12.47584 49.833406l77.71286 133.80063c13.38069-15.80504 47.82695-11.89571 48.18438 19.35812-2.32613 28.37243-33.95852 33.5734-47.30938 17.89579l-78.64063 135.64062c17.45572 3.49588 33.82301 30.13487 9.50556 49.33804-23.67157 15.26548-50.98259-8.82372-40.76337-31.98257h-154.11351c9.25493 24.69143-14.21266 47.76181-38.80492 35.12355-25.82773-16.05117-9.704-50.7516 7.0239-49.45363l-79.339845-137.41992c-17.524903 16.02047-46.174805 5.70297-47.500001-19-.956883-21.87564 28.291543-38.92548 47.500001-18.55292l78.394535-136.73242c-32.4989-10.757402-22.65892-40.20863-10.89104-49.07042 19.30477-16.078431 56.87666 6.356753 40.73088 33.658302z" transform="scale(.26458333)"/><circle cx="40.845047" cy="116.51588" r="4.795573"/><circle cx="94.985413" cy="115.75521" r="4.795573"/><circle cx="40.481251" cy="19.909895" r="4.795573"/><path d="m21.973 64.403h15.961635l11.608594-15.785813 5.423958 22.357291 12.7-37.835416 11.57552 39.092187 4.359951-25.003125 10.701925 17.174876 18.824167.000177-21.715209-37.547969h-47.492708z"/><path d="m21.973 72.076h19.373596l5.565888-7.904586 7.670634 28.53102 13.096208-38.166087 12.020446 47.099573 7.296457-37.277419 4.91108 7.717409 21.047471.00009-21.468421 37.09024h-47.847927z"/></g></svg>

<?xml version="1.0" encoding="UTF-8" standalone="no"?>
<!-- Created with Inkscape (http://www.inkscape.org/) -->

<svg
   width="512"
   height="512"
   viewBox="0 0 135.46666 135.46667"
   version="1.1"
   id="svg826"
   inkscape:version="1.1.1 (3bf5ae0d25, 2021-09-20)"
   sodipodi:docname="Retrieve the Wounded.svg"
   xmlns:inkscape="http://www.inkscape.org/namespaces/inkscape"
   xmlns:sodipodi="http://sodipodi.sourceforge.net/DTD/sodipodi-0.dtd"
   xmlns="http://www.w3.org/2000/svg"
   xmlns:svg="http://www.w3.org/2000/svg">
  <sodipodi:namedview
     id="namedview828"
     pagecolor="#ffffff"
     bordercolor="#666666"
     borderopacity="1.0"
     inkscape:pageshadow="2"
     inkscape:pageopacity="0.0"
     inkscape:pagecheckerboard="0"
     inkscape:document-units="mm"
     showgrid="false"
     units="px"
     inkscape:zoom="0.5"
     inkscape:cx="205"
     inkscape:cy="221"
     inkscape:window-width="1366"
     inkscape:window-height="697"
     inkscape:window-x="-8"
     inkscape:window-y="-8"
     inkscape:window-maximized="1"
     inkscape:current-layer="layer1"
     inkscape:object-nodes="false" />
  <defs
     id="defs823" />
  <g
     inkscape:label="Layer 1"
     inkscape:groupmode="layer"
     id="layer1">
    <g
       id="g7573"
       transform="matrix(1.0149033,0,0,1.0149033,-0.66985715,-0.9821771)">
      <circle
         style="fill:#273839;fill-opacity:1;stroke:none;stroke-width:20.8882;stroke-linejoin:round;stroke-opacity:1"
         id="path1551-53"
         cx="95.976486"
         cy="20.632605"
         r="4.7955728" />
      <circle
         style="fill:#273839;fill-opacity:1;stroke:none;stroke-width:20.8882;stroke-linejoin:round;stroke-opacity:1"
         id="path1551-6"
         cx="122.56823"
         cy="67.865623"
         r="4.7955728" />
      <circle
         style="fill:#273839;fill-opacity:1;stroke:none;stroke-width:20.8882;stroke-linejoin:round;stroke-opacity:1"
         id="path1551-3"
         cx="12.898438"
         cy="67.865623"
         r="4.7955728" />
      <path
         id="path1280"
         style="fill:#273839;fill-opacity:1;stroke:none;stroke-width:0.999999px;stroke-linecap:butt;stroke-linejoin:miter;stroke-opacity:1"
         d="m 156.27148,32.703125 -44.19531,26.517578 1.5918,21.212891 -82.156251,143.445316 -17.19336,7.96289 v 51.35351 l 14.84961,6.36524 86.443361,149.55273 v 13.78906 l 45.36719,26.19141 14.56054,-11.16602 H 341.5332 l 8.3086,7.07032 46.13867,-25.63086 -0.88477,-14.84961 84.85352,-145.31055 15.20312,-6.36523 -0.35351,-51.61719 -16.44141,-8.13281 -79.72656,-137.884769 1.06055,-22.27539 -45.07813,-26.69336 -11.66601,10.078125 H 174.30273 Z M 175.75,86.302542 335.18359,85.816406 c -6.24999,-29.162822 21.722,-44.581863 41.35283,-31.950442 24.07053,13.082953 10.73919,50.725646 -12.47584,49.833406 L 441.77344,237.5 c 13.38069,-15.80504 47.82695,-11.89571 48.18438,19.35812 -2.32613,28.37243 -33.95852,33.5734 -47.30938,17.89579 l -78.64063,135.64062 c 17.45572,3.49588 33.82301,30.13487 9.50556,49.33804 C 349.8418,474.99805 322.53078,450.90885 332.75,427.75 H 178.63649 c 9.25493,24.69143 -14.21266,47.76181 -38.80492,35.12355 -25.82773,-16.05117 -9.704,-50.7516 7.0239,-49.45363 L 67.515625,276 C 49.990722,292.02047 21.34082,281.70297 20.015624,257 19.058741,235.12436 48.307167,218.07452 67.515625,238.44708 L 145.91016,101.71466 C 113.41126,90.957258 123.25124,61.50603 135.01912,52.64424 154.32389,36.565809 191.89578,59.000993 175.75,86.302542 Z"
         sodipodi:nodetypes="cccccccccccccccccccccccccccccccccccccccccccc"
         transform="scale(0.26458333)" />
      <circle
         style="fill:#273839;fill-opacity:1;stroke:none;stroke-width:20.8882;stroke-linejoin:round;stroke-opacity:1"
         id="path1551"
         cx="40.845047"
         cy="116.51588"
         r="4.7955728" />
      <circle
         style="fill:#273839;fill-opacity:1;stroke:none;stroke-width:20.8882;stroke-linejoin:round;stroke-opacity:1"
         id="path1551-5"
         cx="94.985413"
         cy="115.75521"
         r="4.7955728" />
      <circle
         style="fill:#273839;fill-opacity:1;stroke:none;stroke-width:20.8882;stroke-linejoin:round;stroke-opacity:1"
         id="path1551-9"
         cx="40.481251"
         cy="19.909895"
         r="4.7955728" />
      <path
         style="fill:#273839;fill-opacity:1;stroke:none;stroke-width:0.264583px;stroke-linecap:butt;stroke-linejoin:miter;stroke-opacity:1"
         d="m 21.973,64.403 h 15.961635 l 11.608594,-15.785813 5.423958,22.357291 12.7,-37.835416 11.57552,39.092187 L 83.602658,47.228124 94.304583,64.403 113.12875,64.403177 91.413541,26.855208 H 43.920833 Z"
         id="path5869"
         sodipodi:nodetypes="cccccccccccc" />
      <path
         style="fill:#273839;fill-opacity:1;stroke:none;stroke-width:0.264583px;stroke-linecap:butt;stroke-linejoin:miter;stroke-opacity:1"
         d="m 21.973,72.076 h 19.373596 l 5.565888,-7.904586 7.670634,28.53102 13.096208,-38.166087 12.020446,47.099573 7.296457,-37.277419 4.91108,7.717409 21.047471,9e-5 -21.468421,37.09024 H 43.638432 Z"
         id="path6697"
         sodipodi:nodetypes="cccccccccccc" />
    </g>
  </g>
  <style
     type="text/css"
     id="style2">
	.st0{fill:#FF0000;}
	.st1{fill:#241C1C;}
</style>
</svg>
